packages/wallets/icons/bitkeep.svg

<svg fill="none" height="100" viewBox="0 0 100 100" width="100" xmlns="http://www.w3.org/2000/svg"><g fill="#495bff"><path d="m62.2857 87.9644-36.8129-21.2638c-1.2932-.7476-2.0889-2.127-2.0889-3.6209v-42.5794c0-.6442-.697-1.0469-1.255-.7242l-7.5325 4.355c-2.845 1.6454-4.5964 4.6813-4.5964 7.9661v35.8079c0 3.286 1.7514 6.3219 4.5964 7.9661l30.9504 17.8929c2.8488 1.6479 6.3613 1.6479 9.2113 0l7.5276-4.3525c.5579-.3202.5579-1.1245 0-1.4472z"/><path d="m32.1596 62.8185 15.8915 9.1879c1.2957.7488 2.8919.7488 4.1863 0l15.8952-9.1879c1.2932-.7476 2.0888-2.127 2.0888-3.6209v-18.3868c0-1.4939-.7968-2.8733-2.0888-3.6209l-15.894-9.1891c-1.2956-.7488-2.8918-.7488-4.1862 0l-3.9437 2.2797c-.2795.1614-.6281-.0406-.6281-.3621l.0259-21.01747c.0012-.64414-.6971-1.04811-1.255-.72542l-10.0636 5.81819c-1.2919.7463-2.0875 2.1257-2.0888 3.6184l-.0271 41.583c-.0024 1.494.7944 2.8758 2.0876 3.6234zm9.2026-16.1871c0-1.0555.5629-2.0309 1.4767-2.5593l5.828-3.3684c.9151-.5296 2.0433-.5296 2.9584 0l5.828 3.3684c.9138.5284 1.4767 1.5038 1.4767 2.5593v6.7443c0 1.0555-.5629 2.031-1.4767 2.5593l-5.828 3.3685c-.9151.5296-2.0433.5296-2.9584 0l-5.828-3.3685c-.9138-.5283-1.4767-1.5038-1.4767-2.5593z"/><path d="m85.7047 24.12-30.9505-17.89409c-1.2968-.75005-2.7304-1.15771-4.1764-1.22545-.2377-.01109-.436.18104-.436.41875v13.12409c0 .2993.1589.5751.4176.7242l24.2689 14.0231c1.2932.7476 2.0888 2.127 2.0888 3.621v26.1558c0 1.4939-.7968 2.8733-2.0888 3.6209l-16.7315 9.6731c-.5567.3227-.5567 1.1269 0 1.4484l11.289 6.5177c.5185.2993 1.1565.2993 1.6738 0l14.6451-8.4661c2.8438-1.6442 4.5964-4.6802 4.5964-7.9661v-35.8092c0-3.2859-1.7514-6.3219-4.5964-7.9661z"/></g></svg>

<svg width="100" height="100" viewBox="0 0 100 100" fill="none" xmlns="http://www.w3.org/2000/svg">
<path d="M62.2857 87.9644L25.4728 66.7006C24.1796 65.953 23.3839 64.5736 23.3839 63.0797V20.5003C23.3839 19.8561 22.6869 19.4534 22.1289 19.7761L14.5964 24.1311C11.7514 25.7765 10 28.8124 10 32.0972V67.9051C10 71.1911 11.7514 74.227 14.5964 75.8712L45.5468 93.7641C48.3956 95.412 51.9081 95.412 54.7581 93.7641L62.2857 89.4116C62.8436 89.0914 62.8436 88.2871 62.2857 87.9644Z" fill="#495BFF"/>
<path d="M32.1596 62.8185L48.0511 72.0064C49.3468 72.7552 50.943 72.7552 52.2374 72.0064L68.1326 62.8185C69.4258 62.0709 70.2214 60.6915 70.2214 59.1976V40.8108C70.2214 39.3169 69.4246 37.9375 68.1326 37.1899L52.2386 28.0008C50.943 27.252 49.3468 27.252 48.0524 28.0008L44.1087 30.2805C43.8292 30.4419 43.4806 30.2399 43.4806 29.9184L43.5065 8.90093C43.5077 8.25679 42.8094 7.85282 42.2515 8.17551L32.1879 13.9937C30.896 14.74 30.1004 16.1194 30.0991 17.6121L30.072 59.1951C30.0696 60.6891 30.8664 62.0709 32.1596 62.8185ZM41.3622 46.6314C41.3622 45.5759 41.9251 44.6005 42.8389 44.0721L48.6669 40.7037C49.582 40.1741 50.7102 40.1741 51.6253 40.7037L57.4533 44.0721C58.3671 44.6005 58.93 45.5759 58.93 46.6314V53.3757C58.93 54.4312 58.3671 55.4067 57.4533 55.935L51.6253 59.3035C50.7102 59.8331 49.582 59.8331 48.6669 59.3035L42.8389 55.935C41.9251 55.4067 41.3622 54.4312 41.3622 53.3757V46.6314Z" fill="#495BFF"/>
<path d="M85.7047 24.12L54.7542 6.22591C53.4574 5.47586 52.0238 5.0682 50.5778 5.00046C50.3401 4.98937 50.1418 5.1815 50.1418 5.41921V18.5433C50.1418 18.8426 50.3007 19.1184 50.5594 19.2675L74.8283 33.2906C76.1215 34.0382 76.9171 35.4176 76.9171 36.9116V63.0674C76.9171 64.5613 76.1203 65.9407 74.8283 66.6883L58.0968 76.3614C57.5401 76.6841 57.5401 77.4883 58.0968 77.8098L69.3858 84.3275C69.9043 84.6268 70.5423 84.6268 71.0596 84.3275L85.7047 75.8614C88.5485 74.2172 90.3011 71.1812 90.3011 67.8953V32.0861C90.3011 28.8002 88.5497 25.7642 85.7047 24.12Z" fill="#495BFF"/>
</svg>
